src/icons/terminal-cmd.svg

<svg width="16" height="16" viewBox="0 0 16 16" xmlns="http://www.w3.org/2000/svg" fill="currentColor"><path d="M10.875 7L12.8828 12H12.1719L10.1641 7H10.875ZM5.75 7.59375C5.47396 7.59375 5.22396 7.63542 5 7.71875C4.77604 7.80208 4.58333 7.92708 4.42188 8.09375C4.26042 8.26042 4.13542 8.46354 4.04688 8.70312C3.95833 8.94271 3.91406 9.21875 3.91406 9.53125C3.91406 9.81771 3.95312 10.0781 4.03125 10.3125C4.10938 10.5469 4.22656 10.7448 4.38281 10.9062C4.53906 11.0677 4.72917 11.1953 4.95312 11.2891C5.17708 11.3828 5.43229 11.4271 5.71875 11.4219C5.90104 11.4219 6.08073 11.4036 6.25781 11.3672C6.4349 11.3307 6.58594 11.2839 6.71094 11.2266L6.83594 11.7109C6.72135 11.7682 6.55729 11.8177 6.34375 11.8594C6.13021 11.901 5.88021 11.9245 5.59375 11.9297C5.26562 11.9297 4.96094 11.8776 4.67969 11.7734C4.39844 11.6693 4.15104 11.5182 3.9375 11.3203C3.72396 11.1224 3.5625 10.875 3.45312 10.5781C3.34375 10.2812 3.28385 9.9401 3.27344 9.55469C3.27344 9.1901 3.33333 8.85677 3.45312 8.55469C3.57292 8.2526 3.73958 7.99219 3.95312 7.77344C4.16667 7.55469 4.42448 7.38542 4.72656 7.26562C5.02865 7.14583 5.36198 7.08594 5.72656 7.08594C6.02344 7.08594 6.26302 7.10938 6.44531 7.15625C6.6276 7.20312 6.76042 7.25 6.84375 7.29688L6.69531 7.78906C6.58073 7.73177 6.44531 7.6849 6.28906 7.64844C6.13281 7.61198 5.95312 7.59375 5.75 7.59375ZM8 8H9V9H8V8ZM8 10H9V11H8V10Z"/><path d="M15.5 1H0.5L0 1.5V14.5L0.5 15H15.5L16 14.5V1.5L15.5 1ZM15 14H1V5H15V14ZM15 4H1V2H15V4Z"/></svg>

<svg width="16" height="16" viewBox="0 0 16 16" xmlns="http://www.w3.org/2000/svg" fill="currentColor"><path d="M10.875 7l2.008 5h-.711l-2.008-5h.711zm-5.125.594c-.276 0-.526.041-.75.125a1.542 1.542 0 0 0-.578.375c-.162.166-.287.37-.375.61a2.364 2.364 0 0 0-.133.827c0 .287.04.547.117.781.078.235.196.433.352.594.156.162.346.29.57.383.224.094.48.138.766.133a2.63 2.63 0 0 0 .992-.195l.125.484a1.998 1.998 0 0 1-.492.148 4.381 4.381 0 0 1-.75.07 2.61 2.61 0 0 1-.914-.156 2.207 2.207 0 0 1-.742-.453 1.878 1.878 0 0 1-.485-.742 3.204 3.204 0 0 1-.18-1.023c0-.365.06-.698.18-1 .12-.302.287-.563.5-.782.214-.218.471-.388.774-.507a2.69 2.69 0 0 1 1-.18c.296 0 .536.023.718.07.183.047.315.094.399.14l-.149.493a1.85 1.85 0 0 0-.406-.14 2.386 2.386 0 0 0-.539-.055zM8 8h1v1H8V8zm0 2h1v1H8v-1z"/><path d="M15.5 1H.5l-.5.5v13l.5.5h15l.5-.5v-13l-.5-.5zM15 14H1V5h14v9zm0-10H1V2h14v2z"/></svg>
